build/img/mail-icon.svg

<svg width="57" height="57" viewBox="0 0 57 57" fill="none" xmlns="http://www.w3.org/2000/svg">
<circle cx="28.5" cy="28.5" r="28.5" fill="black"/>
<path fill-rule="evenodd" clip-rule="evenodd" d="M32.9394 21C34.2804 21 35.5704 21.53 36.5194 22.481C37.4694 23.43 38.0004 24.71 38.0004 26.05V33.95C38.0004 36.74 35.7304 39 32.9394 39H23.0604C20.2694 39 18.0004 36.74 18.0004 33.95V26.05C18.0004 23.26 20.2594 21 23.0604 21H32.9394ZM34.5304 27.54L34.6104 27.46C34.8494 27.17 34.8494 26.75 34.5994 26.46C34.4604 26.311 34.2694 26.22 34.0704 26.2C33.8604 26.189 33.6604 26.26 33.5094 26.4L29.0004 30C28.4204 30.481 27.5894 30.481 27.0004 30L22.5004 26.4C22.1894 26.17 21.7594 26.2 21.5004 26.47C21.2304 26.74 21.2004 27.17 21.4294 27.47L21.5604 27.6L26.1104 31.15C26.6704 31.59 27.3494 31.83 28.0604 31.83C28.7694 31.83 29.4604 31.59 30.0194 31.15L34.5304 27.54Z" fill="white"/>
</svg>

<svg width="57" height="57" fill="none" xmlns="http://www.w3.org/2000/svg"><circle cx="28.5" cy="28.5" r="28.5" fill="#000"/><path fill-rule="evenodd" clip-rule="evenodd" d="M32.94 21A5.057 5.057 0 0138 26.05v7.9c0 2.79-2.27 5.05-5.06 5.05h-9.88A5.057 5.057 0 0118 33.95v-7.9A5.05 5.05 0 0123.06 21h9.88zm1.59 6.54l.08-.08a.773.773 0 00-.01-1 .84.84 0 00-.53-.26.76.76 0 00-.56.2L29 30a1.566 1.566 0 01-2 0l-4.5-3.6a.76.76 0 00-1 .07c-.27.27-.3.7-.07 1l.13.13 4.55 3.55a3.143 3.143 0 003.91 0l4.51-3.61z" fill="#fff"/></svg>
